X:1
T:Zebulun, 88.88.88
T:Zebulun, 88.88.88
T:Anonymous, 1889
T:Public Domain Courtesy of the Cyber Hymnal™
C:Anonymous, 1889
Z:Public Domain
Z:Courtesy of the Cyber Hymnal™
%%score ( 1 2 ) ( 3 4 )
L:1/8
Q:1/4=115
M:3/4
K:Eb
V:1 treble 
V:2 treble 
V:3 bass 
V:4 bass 
V:1
 [EB]2 [EG]2 [DF]2 | E4 [CE]2 | c4 c2 | (c2 B4) | [Ec]2 [FA]2 [DF]2 | [EB]4 E2 | %6
 ([DF]2 [FA]2) [EG]2 | ([EG]2 [DF]4) | [EB]2 [EG]2 [DF]2 | E4 E2 | (_d2 c2) [EB]2 | [Ec]6 | %12
 [DB]2 [Ec]2 [Ad]2 | ([Ge]2 [EB]2) [Ec]2 | [EG]4 [DF]2 | E6 | [EG]2 [EG]2 [E=A]2 | [FB]6 | %18
 [GB]2 [GB]2 [Gc]2 | d6 | [Ee]2 [Ed]2 [Ec]2 | [EB]4 E2 | [EG]4 [DF]2 | E6 |] %24
V:2
 x6 | E4 x2 | (C3 D) (EF) | E6 | x6 | x4 E2 | x6 | x6 | x6 | E4 E2 | E4 x2 | x6 | x6 | x6 | x6 | %15
 E6 | x6 | x6 | x6 | (G2 ^F2 =F2) | x6 | x4 E2 | x6 | E6 |] %24
V:3
 [E,G,]2 [E,B,]2 [B,,A,]2 | [C,G,]4 [B,,G,]2 | A,4 A,2 | (A,2 G,4) | [A,,A,]2 [A,C]2 [A,B,]2 | %5
 [G,B,]4 [G,B,]2 | B,4 [E,B,]2 | [B,,B,]6 | [B,,G,]2 B,2 [A,B,]2 | [G,B,]4 [F,A,]2 | %10
 ([E,G,]2 [F,A,]2) [G,B,]2 | A,6 | [A,B,]2 [G,B,]2 [F,B,]2 | B,4 [A,,E,]2 | [B,,B,]4 [B,,A,]2 | %15
 [E,G,]6 | [E,B,]2 [E,B,]2 [C,E]2 | [B,,D]6 | [G,D]2 [G,D]2 [E,G,]2 | ([D,=A,]4 [G,=B,]2) | %20
 [C,C]2 [B,,G,]2 [A,,A,]2 | [G,,B,]4 [A,,C]2 | [B,,B,]4 [B,,A,]2 | [E,G,]6 |] %24
V:4
 x6 | x6 | (A,,3 B,,) (C,D,) | E,6 | x6 | x6 | (F,2 D,2) x2 | x6 | x2 B,2 x2 | x6 | x6 | A,6 | x6 | %13
 (E,2 G,,2) x2 | x6 | x6 | x6 | x6 | x6 | x6 | x6 | x6 | x6 | x6 |] %24

